svgs/thin/joystick.svg

<svg xmlns="http://www.w3.org/2000/svg" viewBox="0 0 448 512"><!-- Font Awesome Pro 6.0.0-alpha2 by @fontawesome - https://fontawesome.com License - https://fontawesome.com/license (Commercial License) --><path d="M416 352H232V223.195C290.051 219.02 336 171.117 336 112C336 50.145 285.855 0 224 0S112 50.145 112 112C112 171.117 157.949 219.02 216 223.195V352H136V336C136 322.781 125.219 312 112 312H80C66.781 312 56 322.781 56 336V352H32C14.375 352 0 366.375 0 384V480C0 497.625 14.375 512 32 512H416C433.625 512 448 497.625 448 480V384C448 366.375 433.625 352 416 352ZM128 112C128 59.066 171.064 16 224 16S320 59.066 320 112S276.936 208 224 208S128 164.934 128 112ZM72 336C72 331.594 75.594 328 80 328H112C116.406 328 120 331.594 120 336V352H72V336ZM432 480C432 488.824 424.822 496 416 496H32C23.178 496 16 488.824 16 480V384C16 375.176 23.178 368 32 368H416C424.822 368 432 375.176 432 384V480ZM240 80C240 62.344 225.656 48 208 48S176 62.344 176 80S190.344 112 208 112S240 97.656 240 80ZM208 96C199.188 96 192 88.812 192 80S199.188 64 208 64S224 71.188 224 80S216.812 96 208 96Z"/></svg>

<svg xmlns="http://www.w3.org/2000/svg" viewBox="0 0 448 512"><!--! Font Awesome Pro 6.3.0 by @fontawesome - https://fontawesome.com License - https://fontawesome.com/license (Commercial License) Copyright 2023 Fonticons, Inc. --><path d="M416 352h-184V223.2c58.05-4.176 104-52.09 104-111.2c0-61.86-50.15-111.1-112-111.1S111.1 50.14 111.1 111.1c0 59.12 45.95 107 104 111.2V352h-80v-16c0-13.22-10.78-24-24-24h-32c-13.22 0-24 10.78-24 24V352H32c-17.62 0-32 14.38-32 32v96c0 17.62 14.38 32 32 32h384c17.62 0 32-14.38 32-32v-96C448 366.4 433.6 352 416 352zM128 112c0-52.93 43.06-96 96-96s96 43.07 96 96s-43.06 96-96 96S128 164.9 128 112zM72 336c0-4.406 3.594-8 8-8h32c4.406 0 8 3.594 8 8V352h-48V336zM432 480c0 8.824-7.178 16-16 16H32c-8.822 0-16-7.176-16-16v-96c0-8.824 7.178-16 16-16h384c8.822 0 16 7.176 16 16V480zM240 80c0-17.66-14.34-32-32-32s-32 14.34-32 32s14.34 32 32 32S240 97.66 240 80zM208 96C199.2 96 192 88.81 192 80S199.2 64 208 64S224 71.19 224 80S216.8 96 208 96z"/></svg>
